actions/22x22-light/extract-archive.svg

<svg xmlns="http://www.w3.org/2000/svg" viewBox="0 0 22 22">
 <defs id="defs3051">
   <style type="text/css" id="current-color-scheme">
     .ColorScheme-Text {
       color:#4d4d4d;
     }
     </style>
 </defs>
   <path
      style="fill:currentColor;fill-opacity:1;stroke:none"
      d="m4.5996094 3c-.4431994 0-.7988282.3575818-.7988282.8007812v14.3984378c0 .443199.3556288.800781.7988282.800781h12.8007816c.443199 0 .798828-.357582.798828-.800781v-14.3984378c0-.4431994-.355629-.8007812-.798828-.8007812zm6.4003906 4.0019531c.15455-.0097669.311469.0418354.429688.1601563l2.570312 2.8378906c.218269.219067.218269.573902 0 .792969-.21828.219067-.572474.219067-.791016 0l-2.208984-2.4394534-2.2070312 2.4394534c-.2185358.219067-.5724799.219067-.7910157 0-.2185412-.219067-.2185412-.573902 0-.792969l2.5683589-2.8378906c.11823-.1183698.274866-.1699124.429688-.1601563zm-.003906 3.5156249c.508955 0 .921875.414255.921875.923828s-.41292.921875-.921875.921875-.919922-.412302-.919922-.921875.410967-.923828.919922-.923828zm0 2.636719c.508955 0 .921875.41426.921875.923828 0 .509573-.41292.921875-.921875.921875s-.919922-.412302-.919922-.921875c0-.509568.410967-.923828.919922-.923828z"
      class="ColorScheme-Text" />
</svg>

<svg xmlns="http://www.w3.org/2000/svg" viewBox="0 0 22 22">
  <defs id="defs3051">
    <style type="text/css" id="current-color-scheme">
      .ColorScheme-Text {
        color:#4d4d4d
      }
      </style>
  </defs>
 <path 
     style="fill:currentColor;fill-opacity:1;stroke:none"      
	 class="ColorScheme-Text"
        d="M 4.5996094 3 C 4.15641 3 3.8007812 3.3575818 3.8007812 3.8007812 L 3.8007812 18.199219 C 3.8007812 18.642418 4.15641 19 4.5996094 19 L 17.400391 19 C 17.84359 19 18.199219 18.642418 18.199219 18.199219 L 18.199219 3.8007812 C 18.199219 3.3575818 17.84359 3 17.400391 3 L 4.5996094 3 z M 11 7.0019531 C 11.15455 6.9921862 11.311469 7.0437885 11.429688 7.1621094 L 14 10 C 14.218269 10.219067 14.218269 10.573902 14 10.792969 C 13.78172 11.012036 13.427526 11.012036 13.208984 10.792969 L 11 8.3535156 L 8.7929688 10.792969 C 8.574433 11.012036 8.2204889 11.012036 8.0019531 10.792969 C 7.7834119 10.573902 7.7834119 10.219067 8.0019531 10 L 10.570312 7.1621094 C 10.688542 7.0437396 10.845178 6.992197 11 7.0019531 z M 10.996094 10.517578 C 11.505049 10.517578 11.917969 10.931833 11.917969 11.441406 C 11.917969 11.950979 11.505049 12.363281 10.996094 12.363281 C 10.487139 12.363281 10.076172 11.950979 10.076172 11.441406 C 10.076172 10.931833 10.487139 10.517578 10.996094 10.517578 z M 10.996094 13.154297 C 11.505049 13.154297 11.917969 13.568557 11.917969 14.078125 C 11.917969 14.587698 11.505049 15 10.996094 15 C 10.487139 15 10.076172 14.587698 10.076172 14.078125 C 10.076172 13.568557 10.487139 13.154297 10.996094 13.154297 z "
     />
</svg>
